src/main/resources/icons/JavaUltimateIcons/icons/web/requestMapping.svg

<svg xmlns="http://www.w3.org/2000/svg" width="16" height="16" viewBox="0 0 16 16">
  <g fill="none" fill-rule="evenodd">
    <path fill="#40B6E0" fill-opacity=".7" d="M2.39519915,3.41930099 L7.84729822,8.92837464 C7.21038831,9.7874819 6.83377749,10.8504883 6.83377749,12.0012956 C6.83377749,13.05838 7.15154312,14.0413824 7.69692874,14.8603225 C6.25473947,14.5409625 4.83771974,13.7037689 3.61226447,12.4656009 C0.965098087,9.79097338 0.170159152,6.21151651 2.39519915,3.41930099 Z M12.3950575,3.59169688 C13.587543,4.79655292 14.4041581,6.18502488 14.7381534,7.60234172 C13.9463774,7.11241177 13.0134166,6.83016418 12.0144122,6.83016418 C10.8432602,6.83016418 9.76287415,7.21806608 8.89517062,7.8721768 L3.44065234,2.36100945 C6.20419936,0.112887319 9.74690489,0.915076289 12.3950575,3.59169688 Z"/>
    <path fill="#9AA7B0" d="M12,8 C9.792,8 8,9.792 8,12 C8,14.208 9.792,16 12,16 C14.208,16 16,14.208 16,12 C16,9.792 14.208,8 12,8 Z M11.6,15.172 C10.02,14.976 8.8,13.632 8.8,12 C8.8,11.752 8.832,11.516 8.884,11.284 L10.8,13.2 L10.8,13.6 C10.8,14.04 11.16,14.4 11.6,14.4 L11.6,15.172 Z M14.36,14.156 C14.256,13.832 13.96,13.6 13.6,13.6 L13.2,13.6 L13.2,12.4 C13.2,12.18 13.02,12 12.8,12 L10.4,12 L10.4,11.2 L11.2,11.2 C11.42,11.2 11.6,11.02 11.6,10.8 L11.6,10 L12.4,10 C12.84,10 13.2,9.64 13.2,9.2 L13.2,9.036 C14.372,9.512 15.2,10.66 15.2,12 C15.2,12.832 14.88,13.588 14.36,14.156 Z"/>
  </g>
</svg>

<svg xmlns="http://www.w3.org/2000/svg" width="16" height="16" viewBox="0 0 16 16"><rect id="frame" width="16" height="16" fill="none"/><g fill="none" fill-rule="evenodd"><path fill="#40B6E0" fill-opacity=".7" d="M2.395 3.42l5.452 5.508a5.142 5.142 0 0 0-1.013 3.073c0 1.057.318 2.04.863 2.86-1.442-.32-2.86-1.157-4.085-2.395C.965 9.79.17 6.212 2.395 3.419zm10 .172c1.193 1.205 2.01 2.593 2.343 4.01a5.159 5.159 0 0 0-2.724-.772 5.164 5.164 0 0 0-3.119 1.042L3.441 2.361C6.204.113 9.747.915 12.395 3.591z"/><path fill="#9AA7B0" d="M12 8c-2.208 0-4 1.792-4 4s1.792 4 4 4 4-1.792 4-4-1.792-4-4-4zm-.4 7.172A3.195 3.195 0 0 1 8.8 12c0-.248.032-.484.084-.716L10.8 13.2v.4c0 .44.36.8.8.8v.772zm2.76-1.016a.794.794 0 0 0-.76-.556h-.4v-1.2c0-.22-.18-.4-.4-.4h-2.4v-.8h.8c.22 0 .4-.18.4-.4V10h.8c.44 0 .8-.36.8-.8v-.164c1.172.476 2 1.624 2 2.964 0 .832-.32 1.588-.84 2.156z"/></g></svg>
